!!!COM: Bach, Johann Sebastian
!!!CDT: 1685/3//-1750/7/28/
!!!OTL@@DE: Lobt Gott, ihr Christen, allzugleich
!!!AGN: 4-Part Chorale
!!!SCT: BH 054
!!!SCT: BWV 151
**harm	**root	**kern	**kern	**kern	**kern
!	!	!bass	!tenor	!alto	!soprno
*	*Iorgan	*Iorgan	*Iorgan	*Iorgan	*Iorgan
*	*	*clefF4	*clefF4	*clefG2	*clefG2
*k[f#c#]	*k[f#c#]	*k[f#c#]	*k[f#c#]	*k[f#c#]	*k[f#c#]
*D:	*D:	*D:	*D:	*D:	*D:
*M4/4	*M4/4	*M4/4	*M4/4	*M4/4	*M4/4
*met(c)	*met(c)	*met(c)	*met(c)	*met(c)	*met(c)
*MM60	*MM60	*MM60	*MM60	*MM60	*MM60
I	4GG	4D	4F#	4A	4d
=1	=1	=1	=1	=1	=1
Vb	4DD	4C#	4E	8A	4a
.	.	.	.	8B	.
V7	4DD	4AA	8A	4c#	4a
.	.	.	8G	.	.
I	4GG	8D	8F#	4d	4a
.	.	8E	8G	.	.
Ib	4GG	4F#	4A	4d	4a
=2	=2	=2	=2	=2	=2
IV	4CC	4GG	8G	4d	4b
.	.	.	8F#	.	.
V7	4DD	4AA	8E	4c#	8a
.	.	.	8A	.	8g
I;	4GG;	4D;	4A;	4d;	4f#;
Vb	4DD	4C#	4A	4e	4e
=3	=3	=3	=3	=3	=3
vi	4EE	4BB	4D	4d	8f#
.	.	.	.	.	8g#
V	4DD	4AA	4E	4c#	4a
vib	4EE	4D	4F#	8B	4b
.	.	.	.	8c#	.
V7/V	4AA	4E	4G#	4d	4b
=4	=4	=4	=4	=4	=4
V;	2DD;	2AA;	2E	2c#;	2a;
r	4r	4r	4r	4r	4r
V7b	4DD	4C#	8A	4e	4a
.	.	.	8G	.	.
=5	=5	=5	=5	=5	=5
I	4GG	4D	4F#	4d	4a
V7c	4DD	4E	4G	4c#	4a
Ib	4GG	4F#	4A	4d	4a
vi	4EE	4BB	4B	4d	8f#
.	.	.	.	.	8g
!!linebreak: 2
=6	=6	=6	=6	=6	=6
Ib	4GG	4FF#	4A	4d	4a
iib	4AA	4GG	4B	8e	8g
.	.	.	.	8d	8f#
V;	4DD;	4AA;	4E;	4c#;	4e;
iii	4BB	4FF#	4F#	4c#	4a
=7	=7	=7	=7	=7	=7
IV7	8CC	8BB	8F#	8d	4g
viio	8FF#	8C#	8E	4e	.
I	4GG	4D	8F#	.	4f#
.	.	.	8G	[8d	.
V	4DD	4AA	4A	8d]	4e
.	.	.	.	8B	.
viio7/VI	4DD#	4AA#	4G	4c#	4e
=8	=8	=8	=8	=8	=8
vi	2EE	8BB	4F#	2d	8d
.	.	8C#	.	.	8e
.	.	8D	4B	.	8f#
.	.	8E	.	.	8g
iii;	4BB;	4F#;	4A;	4c#;	4a;
I	4GG	4D	4F#	4d	4a
=9	=9	=9	=9	=9	=9
IVb	4CC	4BB	8G	4d	4g
.	.	.	8A	.	.
vi7d	4EE	8AA	4B	4d	8f#
.	.	8GG	.	.	8e
Ic	4GG	4AA	4A	4d	4f#
V7	4DD	4AA	8A	4c#	4e
.	.	.	8G	.	.
=10	=10	=10	=10	=10	=10
I;	2.GG;	2.DD;	2.F#;	2.A;	2.d;
==	==	==	==	==	==
*-	*-	*-	*-	*-	*-
!!chor2scor: -l 2 -s 0.6 -o %b.pmx
!!!YEC: Copyright 2001 by Craig Stuart Sapp
!!!license: GNU General Public License (http://www.gnu.org/copyleft/gpl.html)
!!!SMA: 371 Bach Chorales, edited by Ludwig Erk, C.F. Peters
!!!PDT: 1850, 1865
!!!ONB: Harmony and Root analysis done manually by Craig Sapp
